X:11320
%5560
T:Frost is all over
C:Trad.
K:Cmaj
M:4/4
|: GCC C2 E 
%Error : Bar 1 is 3/4 not 4/4
| Gcc A2 G 
%Error : Bar 2 is 3/4 not 4/4
| GAG E2 E 
%Error : Bar 3 is 3/4 not 4/4
| FEF D3 
%Error : Bar 4 is 3/4 not 4/4
|
GCC C2 E 
%Error : Bar 5 is 3/4 not 4/4
| Gcc A2 G 
%Error : Bar 6 is 3/4 not 4/4
| GAG E2 D 
%Error : Bar 7 is 3/4 not 4/4
| [1DCC C3 :| [2DCC C2d 
%Error : Bar 9 is 3/2 not 4/4
|
|: ecc dcd 
%Error : Bar 11 is 3/4 not 4/4
| ecc c2 d 
%Error : Bar 12 is 3/4 not 4/4
| eee cde 
%Error : Bar 13 is 3/4 not 4/4
| fff def 
%Error : Bar 14 is 3/4 not 4/4
|
edc A2 c 
%Error : Bar 15 is 3/4 not 4/4
| G2 c F3 
%Error : Bar 16 is 3/4 not 4/4
| GAG E2 D 
%Error : Bar 17 is 3/4 not 4/4
| [1DCC C2d :| [2 DCC C3
%Error : Bar 19 is 3/2 not 4/4
|


